flags/us-mo.svg

<svg width="512" height="512" viewBox="0 0 512 512" fill="none" xmlns="http://www.w3.org/2000/svg">
<rect y="136" width="512" height="240" fill="var(--flag-palette-white, #eeeeee)"/>
<rect y="344" width="512" height="168" fill="var(--flag-palette-navy, #002266)"/>
<rect width="512" height="168" fill="var(--flag-palette-bright-red, #d80027)"/>
<path d="M256 416C344.366 416 416 344.366 416 256C416 167.634 344.366 96 256 96C167.634 96 96 167.634 96 256C96 344.366 167.634 416 256 416Z" fill="var(--flag-palette-navy, #002266)"/>
<path d="M256 360C313.438 360 360 313.438 360 256C360 198.562 313.438 152 256 152C198.562 152 152 198.562 152 256C152 313.438 198.562 360 256 360Z" fill="var(--flag-palette-white, #eeeeee)"/>
<path d="M240 148.4L281.6 118.4H230.4L272 148.4L256 99.5996L240 148.4ZM363.6 240L393.6 281.6V230.4L363.6 272L412.4 256L363.6 240ZM272 363.6L230.4 393.6H281.6L240 363.6L256 412.4L272 363.6ZM148.4 272L118.4 230.4V281.6L148.4 240L99.6001 256L148.4 272ZM295.9 154.8L347 149.6L302.6 124L323.7 170.8L334.2 120.5L295.9 154.8ZM357.2 295.9L362.4 347L388 302.6L341.2 323.7L391.4 334.2L357.2 295.9ZM216.1 357.2L165 362.4L209.4 388L188.3 341.2L177.8 391.4L216.1 357.2ZM154.8 216.1L149.6 165L124 209.4L170.8 188.3L120.6 177.8L154.8 216.1ZM341.2 188.3L388 209.4L362.4 165L357.2 216.1L391.5 177.8L341.2 188.3ZM323.7 341.2L302.6 388L347 362.4L295.9 357.2L334.2 391.4L323.7 341.2ZM170.8 323.7L124 302.6L149.6 347L154.8 295.9L120.5 334.2L170.8 323.7ZM188.3 170.8L209.4 124L165 149.6L216.1 154.8L177.8 120.6L188.3 170.8Z" fill="var(--flag-palette-white, #eeeeee)"/>
<path d="M256 168C240.968 168.021 226.191 171.892 213.079 179.244C199.968 186.596 188.958 197.185 181.1 210H331C323.133 197.17 312.108 186.573 298.977 179.219C285.847 171.866 271.049 168.003 256 168Z" fill="var(--flag-palette-light-blue, #338af3)"/>
<path d="M256 336C286.928 336 312 310.928 312 280C312 249.072 286.928 224 256 224C225.072 224 200 249.072 200 280C200 310.928 225.072 336 256 336Z" fill="var(--flag-palette-gold, #ff9811)"/>
<path d="M288 280C288 288.487 284.629 296.626 278.627 302.627C272.626 308.629 264.487 312 256 312L240 280L256 248C264.487 248 272.626 251.371 278.627 257.373C284.629 263.374 288 271.513 288 280Z" fill="var(--flag-palette-white, #eeeeee)"/>
<path d="M256 248C247.513 248 239.374 251.371 233.373 257.373C227.371 263.374 224 271.513 224 280L240 296L256 280V248Z" fill="var(--flag-palette-navy, #002266)"/>
<path d="M256 312C247.513 312 239.374 308.629 233.373 302.627C227.371 296.626 224 288.487 224 280H256V312Z" fill="var(--flag-palette-bright-red, #d80027)"/>
</svg>

<svg xmlns="http://www.w3.org/2000/svg" width="512" height="512" fill="none"><path fill="var(--flag-palette-white, #eeeeee)" d="M0 136h512v240H0z"/><path fill="var(--flag-palette-navy, #002266)" d="M0 344h512v168H0z"/><path fill="var(--flag-palette-bright-red, #d80027)" d="M0 0h512v168H0z"/><path fill="var(--flag-palette-navy, #002266)" d="M256 416a160 160 0 1 0 0-320 160 160 0 0 0 0 320"/><path fill="var(--flag-palette-white, #eeeeee)" d="M256 360a104 104 0 1 0 0-208 104 104 0 0 0 0 208"/><path fill="var(--flag-palette-white, #eeeeee)" d="m240 148.4 41.6-30h-51.2l41.6 30-16-48.8zM363.6 240l30 41.6v-51.2l-30 41.6 48.8-16zM272 363.6l-41.6 30h51.2l-41.6-30 16 48.8zM148.4 272l-30-41.6v51.2l30-41.6-48.8 16zm147.5-117.2 51.1-5.2-44.4-25.6 21.1 46.8 10.5-50.3zm61.3 141.1 5.2 51.1 25.6-44.4-46.8 21.1 50.2 10.5zm-141.1 61.3-51.1 5.2 44.4 25.6-21.1-46.8-10.5 50.2zm-61.3-141.1-5.2-51.1-25.6 44.4 46.8-21.1-50.2-10.5zm186.4-27.8 46.8 21.1-25.6-44.4-5.2 51.1 34.3-38.3zm-17.5 152.9L302.6 388l44.4-25.6-51.1-5.2 38.3 34.2zm-152.9-17.5L124 302.6l25.6 44.4 5.2-51.1-34.3 38.3zm17.5-152.9 21.1-46.8-44.4 25.6 51.1 5.2-38.3-34.2z"/><path fill="var(--flag-palette-light-blue, #338af3)" d="M256 168a88 88 0 0 0-74.9 42H331a88 88 0 0 0-75-42"/><path fill="var(--flag-palette-gold, #ff9811)" d="M256 336a56 56 0 1 0 0-112 56 56 0 0 0 0 112"/><path fill="var(--flag-palette-white, #eeeeee)" d="M288 280a32 32 0 0 1-32 32l-16-32 16-32a32 32 0 0 1 32 32"/><path fill="var(--flag-palette-navy, #002266)" d="M256 248a32 32 0 0 0-32 32l16 16 16-16z"/><path fill="var(--flag-palette-bright-red, #d80027)" d="M256 312a32 32 0 0 1-32-32h32z"/></svg>
